X:1
T:Title
%%score { ( 1 3 ) | ( 2 4 ) }
L:1/8
Q:1/4=104
M:4/4
K:C
V:1 treble nm="Grand Piano"
V:3 treble 
V:2 bass 
V:4 bass 
V:1
 C2 E2 G3 E | FGAB c2 c2 | BB[Ec][Ec] [DB]2 [^FA][FA] | G6 z2 | G2 G2 A3 A | BBcc d2 d2 | %6
w: C.~H.~Gabriel * * *||||||
 ee[Af]d c2 [DB][DB] | [Ec]6 z2 | [CE]>[DF] [EG]>[FA] [EG]2 [Ec]2 | %9
w: |||
 [CE]>[DF] [EG]>[FA] [EG]2 [Ec]2 | z4 d2 z2 | [Ec]2 [FA]2 [FA]2 [EG]2 | A>A A>A A4 | %13
w: ||||
 [EG]>[EG] [EG]>[EG] [EG]4 | c>c c>d e2 [Ge]>[Fd] | [Ec]8 |] %16
w: |||
V:2
 C,2 E,2 G,3 E, | F,G,A,B, C2 C2 | [G,D][G,D][C,G,][C,G,] [D,G,]2 [D,C][D,C] | [G,B,D]6 z2 | %4
 [G,B,D]2 [G,B,D]2 [G,CE]3 [G,CE] | [G,DF][G,DF][G,CE][G,CE] [G,B,G]2 [G,B,G]2 | %6
 [CG][CG][K:bass][F,C][F,A,F] [G,E]2 [G,,G,][G,,G,] | [C,G,]6 z2 | [C,G,]2 [C,C]2 [C,C]2 [C,G,]2 | %9
 [C,G,]2 [C,C]2 [C,C]2 [C,G,]2 | B,>A, B,>A, [G,B,G]2 G>F | [C,C]2 [C,C]2 [C,C]2 [C,C]2 | %12
 [F,CF]>[F,CF] [F,CF]>[F,CF] [F,CF]4 | [C,C]>[C,C] [C,C]>[C,C] [C,C]4 | %14
 [A,CE]>[A,CE] [A,CE]>[A,CF] [G,CG]2[K:bass] [G,,G,]>[G,,G,] | [C,G,]8 |] %16
V:3
 x8 | x8 | x8 | x8 | x8 | x8 | x8 | x8 | x8 | x8 | d>c d>c z z/ A,/ e>d | x8 | x8 | x8 | x8 | x8 |] %16
V:4
 x8 | x8 | x8 | x8 | x8 | x8 | x2[K:bass] x6 | x8 | x8 | x8 | [G,G]2 [G,G]2 z2 [G,B,]2 | x8 | x8 | %13
 x8 | x6[K:bass] x2 | x8 |] %16

